static/roadshow/mirror.svg

<?xml version="1.0" encoding="utf-8"?>
<!-- Generator: Adobe Illustrator 25.2.1, SVG Export Plug-In . SVG Version: 6.00 Build 0)  -->
<svg version="1.1" id="Layer_1" xmlns="http://www.w3.org/2000/svg" xmlns:xlink="http://www.w3.org/1999/xlink" x="0px" y="0px"
	 viewBox="0 0 2000 2000" style="enable-background:new 0 0 2000 2000;" xml:space="preserve">
<g id="gcayIf.tif">
	<g>
		<path d="M1002.86,1636.76c-10.61,0-21.22,0-31.83,0c-41.18-11.78-82.03-25.02-123.69-34.72c-20.27-4.72-28.27-12.6-27.76-33.83
			c1.24-51.03-0.17-102.12,0.7-153.17c0.31-17.99-5.46-26.22-23.76-30.16c-42.38-9.12-83.89-22.41-126.37-30.83
			c-23.78-4.72-29.61-15.45-29.51-38.57c0.88-198.93,0.48-397.86,0.57-596.79c0-9.32,0.96-18.64,1.7-32.07
			c57.53,12.22,112.57,23.92,173.89,36.95c0-69.25,0-133.18,0-200.41c60.96,14.31,115.98,27.23,177.36,41.64
			c0-69.08,0-133.04,0-201.54c59.39,14.78,112.72,27.17,165.29,42.24c6.59,1.89,12.77,17.78,13.02,27.34
			c1.29,49.97,1.29,100,0.27,149.97c-0.42,20.78,6.63,28.86,27.71,33.63c53.45,12.08,106.01,28.11,158.93,42.56
			c0,217.29,0,434.57,0,651.86c-17.17-0.45-34.87,1.6-51.42-1.85c-41.64-8.68-82.77-19.86-129.21-31.29c0,70.01,0,133.16,0,201.57
			c-60.64-14.59-116.54-28.05-175.88-42.33C1002.86,1505.81,1002.86,1571.28,1002.86,1636.76z M781.92,863.35c0,16.37,0,27.68,0,39
			c0,90.31,0,180.62,0,270.93c0,69.03-0.28,70.1,65.93,87.76c58.85,15.69,118.42,28.66,180,43.39c0-129.48,0-255.33,0-382.44
			C946.4,902.58,866.68,883.56,781.92,863.35z"/>
	</g>
</g>
</svg>

<svg width="2000" height="2000" viewBox="0 0 2000 2000" fill="none" xmlns="http://www.w3.org/2000/svg">
<path d="M1002.86 1636.76C992.25 1636.76 981.64 1636.76 971.03 1636.76C929.85 1624.98 889 1611.74 847.34 1602.04C827.07 1597.32 819.07 1589.44 819.58 1568.21C820.82 1517.18 819.41 1466.09 820.28 1415.04C820.59 1397.05 814.82 1388.82 796.52 1384.88C754.14 1375.76 712.63 1362.47 670.15 1354.05C646.37 1349.33 640.54 1338.6 640.64 1315.48C641.52 1116.55 641.12 917.62 641.21 718.69C641.21 709.37 642.17 700.05 642.91 686.62C700.44 698.84 755.48 710.54 816.8 723.57C816.8 654.32 816.8 590.39 816.8 523.16C877.76 537.47 932.78 550.39 994.16 564.8C994.16 495.72 994.16 431.76 994.16 363.26C1053.55 378.04 1106.88 390.43 1159.45 405.5C1166.04 407.39 1172.22 423.28 1172.47 432.84C1173.76 482.81 1173.76 532.84 1172.74 582.81C1172.32 603.59 1179.37 611.67 1200.45 616.44C1253.9 628.52 1306.46 644.55 1359.38 659C1359.38 876.29 1359.38 1093.57 1359.38 1310.86C1342.21 1310.41 1324.51 1312.46 1307.96 1309.01C1266.32 1300.33 1225.19 1289.15 1178.75 1277.72C1178.75 1347.73 1178.75 1410.88 1178.75 1479.29C1118.11 1464.7 1062.21 1451.24 1002.87 1436.96C1002.86 1505.81 1002.86 1571.28 1002.86 1636.76ZM781.92 863.35C781.92 879.72 781.92 891.03 781.92 902.35C781.92 992.66 781.92 1082.97 781.92 1173.28C781.92 1242.31 781.64 1243.38 847.85 1261.04C906.7 1276.73 966.27 1289.7 1027.85 1304.43C1027.85 1174.95 1027.85 1049.1 1027.85 921.99C946.4 902.58 866.68 883.56 781.92 863.35Z" fill="white"/>
</svg>
